Newaita-dark/actions/16/format-text-uppercase.svg

<?xml version="1.0" encoding="UTF-8"?>
<svg xmlns="http://www.w3.org/2000/svg" xmlns:xlink="http://www.w3.org/1999/xlink" width="16pt" height="16pt" viewBox="0 0 16 16" version="1.1">
<g id="surface1">
<path style=" stroke:none;fill-rule:nonzero;fill:rgb(47.058824%,56.470591%,61.176473%);fill-opacity:1;" d="M 4.628906 6.078125 C 3.164062 6.078125 1.984375 6.964844 1.984375 8.0625 L 1.984375 14.015625 L 3.308594 14.015625 L 3.308594 11.371094 L 5.953125 11.371094 L 5.953125 14.015625 L 7.277344 14.015625 L 7.277344 8.0625 C 7.277344 6.964844 6.097656 6.078125 4.628906 6.078125 Z M 4.628906 7.402344 C 5.363281 7.402344 5.953125 7.695312 5.953125 8.0625 L 5.953125 10.046875 L 3.308594 10.046875 L 3.308594 8.0625 C 3.308594 7.695312 3.898438 7.402344 4.628906 7.402344 Z M 4.628906 7.402344 "/>
<path style=" stroke:none;fill-rule:nonzero;fill:rgb(47.058824%,56.470591%,61.176473%);fill-opacity:1;" d="M 8.601562 6.078125 L 8.601562 14.015625 L 10.914062 14.015625 C 12.5625 14.015625 13.890625 12.910156 13.890625 11.535156 L 13.890625 11.207031 C 13.890625 10.347656 13.371094 9.589844 12.578125 9.144531 C 12.78125 8.835938 12.898438 8.464844 12.898438 8.0625 C 12.898438 6.964844 12.015625 6.078125 10.914062 6.078125 Z M 9.921875 7.402344 L 10.914062 7.402344 C 11.28125 7.402344 11.578125 7.695312 11.578125 8.0625 C 11.578125 8.429688 11.28125 8.726562 10.914062 8.726562 L 9.921875 8.726562 Z M 9.921875 10.046875 L 10.914062 10.046875 C 11.832031 10.046875 12.570312 10.636719 12.570312 11.371094 C 12.570312 12.105469 11.832031 12.695312 10.914062 12.695312 L 9.921875 12.695312 Z M 9.921875 10.046875 "/>
<path style=" stroke:none;fill-rule:nonzero;fill:rgb(14.901961%,65.098041%,60.392159%);fill-opacity:1;" d="M 8.628906 4.816406 C 8.625 4.945312 8.671875 5.070312 8.757812 5.160156 C 8.847656 5.253906 8.96875 5.304688 9.097656 5.304688 L 13.066406 5.304688 C 13.234375 5.304688 13.390625 5.214844 13.472656 5.066406 C 13.558594 4.921875 13.554688 4.742188 13.46875 4.59375 L 11.484375 1.289062 C 11.398438 1.148438 11.246094 1.058594 11.082031 1.058594 C 10.917969 1.058594 10.765625 1.148438 10.679688 1.289062 L 8.695312 4.59375 C 8.65625 4.664062 8.632812 4.738281 8.628906 4.816406 Z M 9.925781 4.367188 L 11.082031 2.441406 L 12.238281 4.367188 Z M 9.925781 4.367188 "/>
</g>
</svg>

<svg xmlns="http://www.w3.org/2000/svg" width="16pt" height="16pt" viewBox="0 0 16 16"><path d="M4.629 6.078c-1.465 0-2.645.887-2.645 1.984v5.954H3.31V11.37h2.644v2.645h1.324V8.062c0-1.097-1.18-1.984-2.648-1.984zm0 1.324c.734 0 1.324.293 1.324.66v1.985H3.31V8.062c0-.367.59-.66 1.32-.66zm0 0M8.602 6.078v7.938h2.312c1.649 0 2.977-1.106 2.977-2.48v-.329c0-.86-.52-1.617-1.313-2.062.203-.31.32-.68.32-1.082a1.98 1.98 0 0 0-1.984-1.985zm1.32 1.324h.992a.66.66 0 0 1 .664.66.664.664 0 0 1-.664.665h-.992zm0 2.645h.992c.918 0 1.656.59 1.656 1.324 0 .734-.738 1.324-1.656 1.324h-.992zm0 0" fill="#78909c"/><path d="M8.629 4.816a.467.467 0 0 0 .469.488h3.968c.168 0 .325-.09.407-.238a.466.466 0 0 0-.004-.472l-1.985-3.305a.476.476 0 0 0-.402-.23.476.476 0 0 0-.402.23L8.695 4.594a.508.508 0 0 0-.066.222zm1.297-.449l1.156-1.926 1.156 1.926zm0 0" fill="#26a69a"/></svg>
